!!!SOCIAL_FUNCTION: hand game and ghost dance songs
!!!PDT:	1929
!!!LING_GROUP: Caddoan
!!!LANG: Non-Tone
!!!REG: Oklahoma
!!!COM: Anon.
!!!OTL: Song Concerning Mother Moon
!!!ODT: <1920//
!!!MPN: Tsastawinahiigat [She led a phony into the ceremony, Effie Blain]
!!!MLC: Pawnee, Oklahoma, United States of America
!! Song was recorded either 1919 or 1920.
!!!AGN: monody
!!!SOCIAL_FUNCTION2: Ghost dance
!!!AMT: irregular
!!!RWG: Transcribed pitches, durations, and meters are only approximate.
!! Drum not recorded
**kern	**silbe	**words	**words
*ICvox	*LPawnee	*LPawnee	*LEnglish
*Ifemale	*	*	*
*clefG2	*	*	*
*k[b-]	*	*	*
*MM108	*MM108	*MM108	*MM108
*[A,A]	*[A,A]	*[A,A]	*[A,A]
*>A	*>A	*>A	*>A
*M3/4	*M3/4	*M3/4	*M3/4
4d	Ka-	Kaka	Crow
=1	=1	=1	=1
4.a	-ka	.	.
8f	ti	ti	it
4f	wa-	waku	spoke
*M2/4	*M2/4	*M2/4	*M2/4
=2	=2	=2	=2
4f	-ku	.	.
4f	ka-	kaka	crow
*M3/4	*M3/4	*M3/4	*M3/4
=3	=3	=3	=3
4.a	-ka	.	.
8f	ti	ti	it
4f	wa-	waku	spoke
*M2/4	*M2/4	*M2/4	*M2/4
=4	=4	=4	=4
4f	-ku	.	.
4d	we	we	now
=5	=5	=5	=5
4f	tat	tat	I
(16f	tu-	tuta	do
8.e)	|	.	.
=6	=6	=6	=6
(16f	-ta	.	.
8.d)	|	.	.
4d	tu-	tuta	do
*M3/4	*M3/4	*M3/4	*M3/4
=7	=7	=7	=7
4f	-ta	.	.
(16f	tu-	tuta	do
8.e)	|	.	.
(16f	-ta	.	.
8.d)	|	.	.
*M2/4	*M2/4	*M2/4	*M2/4
=8	=8	=8	=8
8f	a-	atira	mother
8d	-ti-	.	.
8d	-ra	.	.
8d	i	i	there
*M3/4	*M3/4	*M3/4	*M3/4
=9	=9	=9	=9
4d	ri	ri	place
4d	ra-	raa	coming
4d	-a	.	.
*M2/4	*M2/4	*M2/4	*M2/4
=10	=10	=10	=10
8f	a-	atira	mother
8d	-ti-	.	.
8d	-ra	.	.
8d	i	i	there
=11	=11	=11	=11
4d	ri	ri	place
4d	ra-	raa	coming
=12	=12	=12	=12
4d	-a	.	.
==:|!	==:|!	==:|!	==:|!
*-	*-	*-	*-
!!!HAO:    The crow which sometimes appeared in the Ghost dance might speak
!!!HAO: of taking the dancer to Mother Moon or to the Ghost dance messiah.
!!!HAO: The following song was "dreamed" by the woman recording it, who
!!!HAO: said she might sing it either at a hand game or a Ghost dance.
!!!HTX: The crow spoke and said, "Now I am coming to where my mother is."
!!!CNT: Pawnee
!!!TXO: Pawnee
!!!OCY: United States
!!!OCL: Frances Densmore
!!!YOR: Frances Densmore, "Pawnee Music"
!!!YOR: Bulletin 93, page 80, No. 51
!!!PPR: Smithsonian Institution, Bureau of American Ethnology
!!!PPR: Government Printing Office
!!!PDT: 1926
!!!PPP: Washington, DC, United States of America
!!!YEC: Electronic Copyright 2000 David Huron
!!!YER: September 2000
!!!YEN: United States of America
!!!ENC: David Huron
!!!RDT: September 4, 2000
!!!EEV: Release 1.0
!!!AIN: vox
